X:1
T:The Bells of Eternity
T:The Bells of Eternity
T:William James Kirkpatrick
T:William Orcutt Cushing, 1902
T:Public Domain Courtesy of the Cyber Hymnal™
T:Public Domain Courtesy of the Cyber Hymnal™
C:William James Kirkpatrick
Z:Public Domain
Z:Courtesy of the Cyber Hymnal™
%%score ( 1 2 ) ( 3 4 )
L:1/8
Q:1/4=100
M:4/4
K:G
V:1 treble 
V:2 treble 
V:3 bass 
V:4 bass 
V:1
 [B,D]2 | [B,G]2 [CG][CG] [B,G]2 [CA][DB] | [EA]2 [CE]2 [CE]3 [CE] | %3
w: 1.~The|day is de- part- ing, its|hours are past; The|
w: 2.~The|sha- dows are creep- ing o’er|vale and hill; The|
w: 3.~The|song of the reap- ers is|far a- way; No|
 [CF]2 [CE][CD] [CF]2 [CE][CD] | [B,E]2 [B,D]2 [B,D]3 D | [GB]2 [GB][GB] [G^A]2 [GB][GB] | %6
w: sha- dows are fall- ing, are|fall- ing fast; The|sheaves are at rest on the|
w: dews on the mount- ains are|soft and still; I|know that the day- light, with|
w: long- er they toil in the|har- vest day; The|mo- ments, now wait- ing, will|
 [Gd]2 [Gc]2 [GB]3 [DG] | [EA]2 [EG][CE] [B,D]2 [B,G][DB] | [^CB]2 [CA]2 [=CA]3 [DB] | %9
w: har- vest plain; The|reap- ers have ga- thered the|gold- en grain, The|
w: wealth un- told, Is|fad- ing a- way on the|hills of gold, Is|
w: soon be o’er; The|day will be gone, and for-|ev- er- more, The|
 [Dd]2 [DB][DG] [^C_B]2 [CA][CG] | [DB]2 [DA]2 [DG]3 ||"^Refrain" [Gd] | %12
w: reap- ers have ga- thered the|gold- en grain.||
w: fad- ing a- way on the|hills of gold.|Be|
w: day will be gone, and for-|ev- er- more.||
 [Gd]2 [GB][Gc] [Gd]2 [DG][DA] | [GB]2 [Gc]2 [GB]3 [GB] | A2 [GA]>[GA] [FA] [FA]2 [Fd] | %15
w: |||
w: rea- dy, my soul, for the|Lord is near; The|sound of His com- ing is|
w: |||
 [Fd]2 ^c2 [Fd]3 [F=c] | [GB]2 [GB][GB] [Gd]2 [Gd][Gd] | [Gc]2 (GA) !fermata![G_B]3 G | %18
w: |||
w: al- most here; Be|rea- dy, for list! they are|call- ing * thee! The|
w: |||
 [GB]3 (A/G/) [GB]3 [GA]/G/ | [FA]2 [Gd]2 !fermata![Fd]3 D | [CE]3 c [DB]3 [CA]/[B,G]/ | %21
w: |||
w: bells, the * bells of e-|ter- ni- ty; The|bells, the bells of e-|
w: |||
 [CA]2 [DB]2 !fermata![B,G]2 |] %22
w: |
w: ter- ni- ty.|
w: |
V:2
 x2 | x8 | x8 | x8 | x7 D | x8 | x8 | x8 | x8 | x8 | x7 || x | x8 | x8 | A2 x6 | x2 (EG) x4 | x8 | %17
 x2 G2 x4 | x15/2 G/ | x8 | x8 | x6 |] %22
V:3
 [G,,G,]2 | [G,,D,]2 [G,,E,][G,,E,] [G,,D,]2 [G,,G,][G,,G,] | [C,G,]2 [C,G,]2 [C,G,]3 [C,A,] | %3
 [D,A,]2 [D,G,][D,F,] [D,A,]2 [D,G,][D,F,] | [G,,G,]2 [G,,G,]2 [G,,G,]3 [G,B,] | %5
 [G,D]2 [G,D][G,D] [G,^C]2 [G,D][G,D] | [G,E]2 [G,_E]2 [G,D]3 [G,B,] | %7
 [C,D]2 [C,G,][C,G,] [G,,G,]2 [G,,G,]G, | [E,G,]2 [E,G,]2 [D,F,]3 G, | %9
 [G,B,]2 [G,B,][G,B,] [_E,G,]2 [E,G,][E,G,] | [D,G,]2 (F,C) [G,,B,]3 || [G,B,] | %12
 [G,B,]2 [G,D][G,D] [G,B,]2 [G,B,][G,C] | [G,D]2 [G,E]2 [G,D]3 [G,D] | %14
 [F,D]2 [E,^C]>[E,C] [D,D] [D,D]2 [D,A,] | A,2 A,2 [D,A,]3 [D,D] | %16
 [G,D]2 [G,D][G,D] [=F,B,]2 [F,B,][F,B,] | [E,C]2 [E,C]2 [_E,^C]3 z | %18
 .[G,D]3 z .[G,D]3 [G,C]/[G,B,]/ | [D,A,]2 [D,B,]2 !fermata![D,A,]3 z | %20
 .[C,G,]3 z .[G,,G,]3 [G,,G,]/[G,,G,]/ | [D,F,]2 (F,D,) !fermata![G,,D,]2 |] %22
V:4
 x2 | x8 | x8 | x8 | x8 | x8 | x8 | x7 G, | x7 G, | x8 | x2 D,2 x3 || x | x8 | x8 | x8 | %15
 A,2 A,2 x4 | x8 | x8 | x8 | x8 | x8 | x2 D,2 x2 |] %22

